www/assets/icons/card_giftcard.svg

<svg xmlns="http://www.w3.org/2000/svg" width="24" height="24" viewBox="0 0 24 24" fill='currentColor'><path d="M20 6.5h-2.18c.11-.31.18-.65.18-1a2.996 2.996 0 0 0-5.5-1.65l-.5.67-.5-.68c-.54-.8-1.45-1.34-2.5-1.34-1.66 0-3 1.34-3 3 0 .35.07.69.18 1H4c-1.11 0-1.99.89-1.99 2L2 19.5c0 1.11.89 2 2 2h16c1.11 0 2-.89 2-2v-11c0-1.11-.89-2-2-2m-5-2c.55 0 1 .45 1 1s-.45 1-1 1-1-.45-1-1 .45-1 1-1m-6 0c.55 0 1 .45 1 1s-.45 1-1 1-1-.45-1-1 .45-1 1-1m11 15H4v-2h16zm0-5H4v-6h5.08L7 11.33l1.62 1.17L12 7.9l3.38 4.6L17 11.33 14.92 8.5H20z"/></svg>

<svg width="24" height="24" viewBox="0 0 24 24" xmlns="http://www.w3.org/2000/svg" fill='currentColor'><path d="M20 6.5H17.82C17.93 6.19 18 5.85 18 5.5C18 3.84 16.66 2.5 15 2.5C13.95 2.5 13.04 3.04 12.5 3.85L12 4.52L11.5 3.84C10.96 3.04 10.05 2.5 9 2.5C7.34 2.5 6 3.84 6 5.5C6 5.85 6.07 6.19 6.18 6.5H4C2.89 6.5 2.01 7.39 2.01 8.5L2 19.5C2 20.61 2.89 21.5 4 21.5H20C21.11 21.5 22 20.61 22 19.5V8.5C22 7.39 21.11 6.5 20 6.5ZM15 4.5C15.55 4.5 16 4.95 16 5.5C16 6.05 15.55 6.5 15 6.5C14.45 6.5 14 6.05 14 5.5C14 4.95 14.45 4.5 15 4.5ZM9 4.5C9.55 4.5 10 4.95 10 5.5C10 6.05 9.55 6.5 9 6.5C8.45 6.5 8 6.05 8 5.5C8 4.95 8.45 4.5 9 4.5ZM20 19.5H4V17.5H20V19.5ZM20 14.5H4V8.5H9.08L7 11.33L8.62 12.5L12 7.9L15.38 12.5L17 11.33L14.92 8.5H20V14.5Z"/></svg>
